X: 1087
T: Holy-rood day.
%R: march
B: Henry Playford "Apollo's Banquet", London 1687 (5th Edition)
F: https://archive.org/details/apollosbanquetco01rugg
Z: 2017 John Chambers <jc:trillian.mit.edu>
M: C|
L: 1/8
K: F
% - - - - - - - - - -
c |\
e4 f3c | d3_e c3(B/A/) |\
B3G c3A | G4 F3 :: c |\
f3g e3d | g3g g3a |
b3a c'3b | a4 b3a |\
g3(fe) a3g | f3e d3c |\
f3g g3f | Hf6 |]
% - - - - - - - - - -

%%sep 1 1 500
%%sep 1 1 500

